X:235
T:Toniata Waltz
C:Andy De Jarlis
M:3/4
L:1/8
Z:abc by Bruce Osborne - bosborne@kos.net
K:C
g2|a3 g e3/2c/|a3 g e3/2c/|g6|[B6 g6]|!
G3/2A/ B3/2c/ d3/2e/|f4 g2|[c6 e6]|[c4 g4] g2|!
a3 g e3/2c/|a3 g e3/2c/|g6|[B6 g6]|!
G3/2A/ B3/2c/ g3/2_g/|f2 A2 B2|c3 B cd|c4:|!
|:z2|E6|^D4 F2|E3 G ce|g6|!
a2 g3 e|a2 g3 e|B6|[B6 g6]|!
G6|[G6 B6]|d6|[d6 f6]|!
g3 g ^fg|f4 g2|e4 ge|ag ec Ac|!
E6|^D4 F2|E3 G ce|g6|!
a2 g3 e|c2 B2 _B2|A6|[F6 A6]|!
A3 G AB|c4 g^f|ag ec Ac|b2 a3 e|!
g3 e fa|e4 d2|c6 -|c4:|!
